Yaru++/actions/16/format-text-code.svg

<svg viewBox="0 0 24 24" xmlns="http://www.w3.org/2000/svg"><path d="m13.5 4-4 15.753906 1 .246094 4-15.7539062zm-5.2460938 3-3.9746093 4.644531-.2792969.355469.2792969.355469 3.9746093 4.644531.7460938-.708984-3.6640625-4.291016 3.6640625-4.2910156zm7.4921878 0-.746094.7089844 3.664062 4.2910156-3.664062 4.291016.746094.708984 3.974609-4.644531.279297-.355469-.279297-.355469z" fill="#808080"/></svg>

<svg xmlns="http://www.w3.org/2000/svg" viewBox="0 0 24 24">
 <defs>
  <style id="current-color-scheme" type="text/css">
   .ColorScheme-Text { color:#808080; }
  </style>
 </defs>
 <path fill="#808080" class="ColorScheme-Text" d="M 13.5 4 L 9.5 19.753906 L 10.5 20 L 14.5 4.2460938 L 13.5 4 z M 8.2539062 7 L 4.2792969 11.644531 L 4 12 L 4.2792969 12.355469 L 8.2539062 17 L 9 16.291016 L 5.3359375 12 L 9 7.7089844 L 8.2539062 7 z M 15.746094 7 L 15 7.7089844 L 18.664062 12 L 15 16.291016 L 15.746094 17 L 19.720703 12.355469 L 20 12 L 19.720703 11.644531 L 15.746094 7 z"/>
</svg>
